svgs/duotone/rv.svg

<svg xmlns="http://www.w3.org/2000/svg" viewBox="0 0 640 512"><!--! Font Awesome Pro 6.6.0 by @fontawesome - https://fontawesome.com License - https://fontawesome.com/license (Commercial License) Copyright 2024 Fonticons, Inc. --><path class="fa-secondary" style="fill:var(--fa-secondary-color,inherit);opacity:var(--fa-secondary-opacity,.4);" d="M112 448a64 64 0 1 0 128 0 64 64 0 1 0 -128 0zm320 0a64 64 0 1 0 128 0 64 64 0 1 0 -128 0z"/><path class="fa-primary" style="fill:var(--fa-primary-color,inherit);opacity:var(--fa-primary-opacity,1);" d="M224 16c0-8.8 7.2-16 16-16L368 0c8.8 0 16 7.2 16 16l0 16 128 0c53 0 96 43 96 96c0 17.7-14.3 32-32 32l-192 0 0 256-117.5 0c-13.2-37.3-48.7-64-90.5-64c-38.9 0-72.5 23.2-87.5 56.5L18.7 338.7C6.7 326.7 0 310.5 0 293.5L0 96C0 60.7 28.7 32 64 32l160 0 0-16zM96 144l0 64c0 8.8 7.2 16 16 16l128 0c8.8 0 16-7.2 16-16l0-64c0-8.8-7.2-16-16-16l-128 0c-8.8 0-16 7.2-16 16zM416 320l0-32 0-72 0-24 24 0 76.6 0c12.9 0 25.5 4.5 35.5 12.7l67.4 55.2c13 10.6 20.5 26.5 20.5 43.3l0 16.8 0 64c0 17.7-14.3 32-32 32l-21.5 0c-13.2-37.3-48.7-64-90.5-64c-33.4 0-62.8 17-80 42.9l0-74.9zm162.1-32l-56.5-46.2c-1.4-1.2-3.2-1.8-5.1-1.8L464 240l0 48 114.1 0z"/></svg>

<svg xmlns="http://www.w3.org/2000/svg" viewBox="0 0 640 512"><!--! Font Awesome Pro 6.4.2 by @fontawesome - https://fontawesome.com License - https://fontawesome.com/license (Commercial License) Copyright 2023 Fonticons, Inc. --><path class="fa-primary" style="fill:var(--fa-primary-color,inherit);opacity:var(--fa-primary-opacity,1);" d="M224 16c0-8.8 7.2-16 16-16H368c8.8 0 16 7.2 16 16V32H512c53 0 96 43 96 96c0 17.7-14.3 32-32 32H384V416H266.5c-13.2-37.3-48.7-64-90.5-64c-38.9 0-72.5 23.2-87.5 56.5L18.7 338.7C6.7 326.7 0 310.5 0 293.5V96C0 60.7 28.7 32 64 32H224V16zM96 144v64c0 8.8 7.2 16 16 16H240c8.8 0 16-7.2 16-16V144c0-8.8-7.2-16-16-16H112c-8.8 0-16 7.2-16 16zM416 320V288 216 192h24 76.6c12.9 0 25.5 4.5 35.5 12.7l67.4 55.2c13 10.6 20.5 26.5 20.5 43.3V320v64c0 17.7-14.3 32-32 32H586.5c-13.2-37.3-48.7-64-90.5-64c-33.4 0-62.8 17-80 42.9V320zm162.1-32l-56.5-46.2c-1.4-1.2-3.2-1.8-5.1-1.8H464v48H578.1z"/><path class="fa-secondary" style="fill:var(--fa-secondary-color,inherit);opacity:var(--fa-secondary-opacity,.4);" d="M176 512a64 64 0 1 0 0-128 64 64 0 1 0 0 128zm320 0a64 64 0 1 0 0-128 64 64 0 1 0 0 128z"/></svg>
